Papirus/22x22/apps/help-browser.svg

<svg xmlns="http://www.w3.org/2000/svg" width="22" height="22" version="1">
 <rect style="fill:#435ece" width="20" height="20" x="-21" y="-21" rx="1" ry="1" transform="matrix(0,-1,-1,0,0,0)"/>
 <path style="opacity:0.1;fill:#ffffff" d="M 2,1 C 1.446,1 1,1.446 1,2 v 0.5 c 0,-0.554 0.446,-1 1,-1 h 18 c 0.554,0 1,0.446 1,1 V 2 C 21,1.446 20.554,1 20,1 Z"/>
 <path style="opacity:0.2" d="m 2,21.5 c -0.554,0 -1,-0.446 -1,-1 V 20 c 0,0.554 0.446,1 1,1 h 18 c 0.554,0 1,-0.446 1,-1 v 0.5 c 0,0.554 -0.446,1 -1,1 z"/>
 <path d="m 12,18.5 h -2 v -2 h 2 z m 2.07,-7.75 -0.9,0.92 C 12.45,12.4 12,13 12,14.5 H 10 V 14 c 0,-1.1 0.45,-2.1 1.17,-2.83 L 12.41,9.91 C 12.78,9.55 13,9.05 13,8.4999998 c 0,-1.1 -0.9,-2 -2,-2 -1.1,0 -2,0.9 -2,2 H 7 c 0,-2.21 1.7900001,-4 4,-4 2.21,0 4,1.79 4,4 C 15,9.38 14.64,10.18 14.07,10.75 Z" style="opacity:0.2"/>
 <path style="fill:#ffffff" d="m 12,18 h -2 v -2 h 2 z m 2.07,-7.75 -0.9,0.92 C 12.45,11.9 12,12.5 12,14 h -2 v -0.5 c 0,-1.1 0.45,-2.1 1.17,-2.83 L 12.41,9.41 C 12.78,9.05 13,8.5500002 13,7.9999998 c 0,-1.1 -0.9,-2 -2,-2 -1.1,0 -2,0.9 -2,2 H 7 c 0,-2.21 1.7900001,-4 4,-4 2.21,0 4,1.79 4,4 C 15,8.8800002 14.64,9.68 14.07,10.25 Z"/>
</svg>

<svg xmlns="http://www.w3.org/2000/svg" width="22" height="22" version="1">
 <rect fill="#435ece" width="20" height="20" x="-21" y="-21" rx="1" ry="1" transform="matrix(0,-1,-1,0,0,0)"/>
 <path fill="#fff" opacity=".2" d="m2 1c-0.554 0-1 0.446-1 1v0.5c0-0.554 0.446-1 1-1h18c0.554 0 1 0.446 1 1v-0.5c0-0.554-0.446-1-1-1h-18z"/>
 <path opacity=".2" d="m2 21.5c-0.554 0-1-0.446-1-1v-0.5c0 0.554 0.446 1 1 1h18c0.554 0 1-0.446 1-1v0.5c0 0.554-0.446 1-1 1h-18z"/>
 <path opacity=".2" d="m12 18.5h-2v-2h2zm2.07-7.75-0.9 0.92c-0.72 0.73-1.17 1.33-1.17 2.83h-2v-0.5c0-1.1 0.45-2.1 1.17-2.83l1.24-1.26c0.37-0.36 0.59-0.86 0.59-1.41 0-1.1-0.9-2-2-2s-2 0.9-2 2h-2c0-2.21 1.79-4 4-4s4 1.79 4 4c0 0.88-0.36 1.68-0.93 2.25z"/>
 <path fill="#fff" d="m12 18h-2v-2h2zm2.07-7.75-0.9 0.92c-0.72 0.73-1.17 1.33-1.17 2.83h-2v-0.5c0-1.1 0.45-2.1 1.17-2.83l1.24-1.26c0.37-0.36 0.59-0.86 0.59-1.41 0-1.1-0.9-2-2-2s-2 0.9-2 2h-2c0-2.21 1.79-4 4-4s4 1.79 4 4c0 0.88-0.36 1.68-0.93 2.25z"/>
 <rect fill="none" width="16" height="16" x="3" y="3"/>
</svg>
